svgs/sharp-light/calendar-circle-user.svg

<svg xmlns="http://www.w3.org/2000/svg" viewBox="0 0 576 512"><!--! Font Awesome Pro 6.6.0 by @fontawesome - https://fontawesome.com License - https://fontawesome.com/license (Commercial License) Copyright 2024 Fonticons, Inc. --><path d="M128 16l0-16L96 0l0 16 0 48L32 64 0 64 0 96l0 64 0 32L0 480l0 32 32 0 298.8 0c-12.9-9.1-24.5-19.9-34.6-32L32 480l0-288 320 0 64 0 16 0 16 0 0-32 0-64 0-32-32 0-64 0 0-48 0-16L320 0l0 16 0 48L128 64l0-48zM32 96l384 0 0 64L32 160l0-64zM489.5 464.1C472.7 474.2 453 480 432 480s-40.7-5.8-57.5-15.9L390.6 448l82.7 0 16.1 16.1zm24.9-20.3l-23.1-23.1-4.7-4.7-6.6 0-96 0-6.6 0-4.7 4.7-23.1 23.1C331.2 423.9 320 397.2 320 368c0-61.9 50.1-112 112-112s112 50.1 112 112c0 29.2-11.2 55.9-29.6 75.8zM576 368a144 144 0 1 0 -288 0 144 144 0 1 0 288 0zM432 320a24 24 0 1 1 0 48 24 24 0 1 1 0-48zm0 80a56 56 0 1 0 0-112 56 56 0 1 0 0 112z"/></svg>

<svg xmlns="http://www.w3.org/2000/svg" viewBox="0 0 576 512"><!--! Font Awesome Pro 6.4.2 by @fontawesome - https://fontawesome.com License - https://fontawesome.com/license (Commercial License) Copyright 2023 Fonticons, Inc. --><path d="M128 16V0H96V16 64H32 0V96v64 32V480v32H32 330.8c-12.9-9.1-24.5-19.9-34.6-32H32V192H352h64 16 16V160 96 64H416 352V16 0H320V16 64H128V16zM32 96H416v64H32V96zM489.5 464.1C472.7 474.2 453 480 432 480s-40.7-5.8-57.5-15.9L390.6 448h82.7l16.1 16.1zm24.9-20.3l-23.1-23.1-4.7-4.7H480 384h-6.6l-4.7 4.7-23.1 23.1C331.2 423.9 320 397.2 320 368c0-61.9 50.1-112 112-112s112 50.1 112 112c0 29.2-11.2 55.9-29.6 75.8zM576 368a144 144 0 1 0 -288 0 144 144 0 1 0 288 0zM432 320a24 24 0 1 1 0 48 24 24 0 1 1 0-48zm0 80a56 56 0 1 0 0-112 56 56 0 1 0 0 112z"/></svg>
